public/home-pattern.svg

<svg width="6065" height="5161" fill="none" xmlns="http://www.w3.org/2000/svg"><g clip-path="url(#a)" stroke="#c5e3fc" stroke-width="37.5"><path d="M1074.62 571.526c13.04-8.881 27.79-15.761 43.92-20.082 15.81-4.237 31.7-5.68 47.15-4.633m0 0c58.99 3.997 111.39 44.333 127.38 104.024 20.18 75.312-25.24 152.919-101.45 173.34l-241.48 64.704c-57.159 15.315-115.763-18.06-130.898-74.544-15.135-56.484 18.93-114.691 76.089-130.006 6.86-1.838 13.742-2.975 20.566-3.452m249.793-134.066c-25.94-66.07-98.6-103.379-169.589-84.358-76.21 20.42-121.632 98.028-101.452 173.34 4.463 16.658 11.762 31.809 21.248 45.084m0 0c14.341-1.008 28.427.883 41.545 5.27" stroke-linecap="round"/><path d="M878.302 455.194c-46.677 12.508-74.379 60.488-61.872 107.165 9.035 33.717 36.575 57.534 68.764 63.443m-6.892-170.608c17.957-4.811 36.108-3.673 52.356 2.209m-52.356-2.209c-17.956 4.812-33.107 14.873-44.237 28.09m44.237-28.09c23.028-6.17 46.376-2.555 65.622 8.299m-65.622-8.299c-23.027 6.17-41.44 20.976-52.681 39.998m52.681-39.998c30.744-8.237 62.057.968 83.42 21.55"/><path d="m850.052 398.059 3.235 12.074m-88.388 153.093-12.074 3.236m201.56-154.652-3.821 6.612m-129.85 224.912-3.821 6.613m-43.71-184-6.616-3.82" stroke-linecap="round"/></g><path d="M3725.52 1787.68c14.9-5.2 30.93-8.03 47.62-8.03 16.37 0 32.09 2.72 46.74 7.73m0 0c55.94 19.13 96.12 71.65 96.12 133.44 0 77.97-63.96 141.18-142.86 141.18h-250c-59.17 0-107.14-47.41-107.14-105.88 0-58.48 47.97-105.89 107.14-105.89 7.11 0 14.05.69 20.76 1.99m275.98-64.84c-7.95-70.54-68.48-125.38-141.97-125.38-78.9 0-142.86 63.21-142.86 141.18 0 17.24 3.13 33.77 8.85 49.04m0 0c14.12 2.74 27.23 8.21 38.77 15.85" stroke="#c5e3fc" stroke-width="37.5" stroke-linecap="round"/><g clip-path="url(#b)"><path d="M4918.19 842.403c-8.08-37.36-47.52-80.939-117.22-129.523-40.46-28.201-79.93-50.072-94.61-57.957l15.69-258.282c.34-5.572-3.8-10.408-9.35-10.954l-155.78-15.144c-3.96-.381-7.79 1.525-9.86 4.918l-81.63 133.543c-2.91 4.764-1.53 10.978 3.12 14.057l221.32 146.552c.16.103 49.71 25.742 99.42 60.415 64.23 44.8 101.79 85.178 108.62 116.765 2.84 13.13.24 24.535-7.94 34.863-10.7 13.511-29.04 14.795-51.95 8.657-36.5-9.783-84.56-38.409-131.62-66.448-44.48-26.491-90.46-53.884-130.11-67.656-48.51-16.847-81.76-11.07-101.64 17.677-15.66 22.671-19.08 46.263-10.14 70.131 17.59 46.995 83.88 93.748 197.02 138.963 70.78 28.28 138.75 47.19 157.5 52.22 3.18.85 4.95 1.3 5.06 1.33 5.55 1.42 11.2-1.94 12.62-7.49 1.41-5.55-1.92-11.24-7.49-12.61-.77-.2-78.62-20.184-160.19-52.796-105.86-42.33-169.86-86.207-185.09-126.895-6.51-17.369-3.96-34.067 7.78-51.053 32.1-46.431 119.52 5.645 204.06 56.007 42.75 25.469 83.13 49.525 118.74 62.782 16.01 5.965 64.74 24.114 91.71-9.933 12.12-15.289 16.14-32.83 11.96-52.139Zm-230.6-220.736-80.69-161.8 93.35-46.554-12.66 208.354Zm-18.57 9.256-174.04-115.241 93.35-46.556 80.69 161.797Zm-71.38-189.624-24.08-48.289 101.19 9.835-77.11 38.454Zm-42.65-39.029 24.09 48.289-77.11 38.455 53.02-86.744Z" fill="#c5e3fc"/></g><g clip-path="url(#c)"><path d="M3672.8 3743.66c-25.68-28.32-81.62-46.34-166.28-53.56-49.14-4.19-94.25-3.4-110.91-2.89l-115.55-231.52c-2.5-5-8.5-7.12-13.58-4.81L3124 3515.65c-3.62 1.65-5.98 5.22-6.08 9.19l-3.92 156.47c-.14 5.58 4.16 10.27 9.73 10.61l264.94 16.26c.19.01 55.92-2.56 116.31 2.61 78.03 6.68 130.75 22.87 152.45 46.81 9.02 9.95 12.48 21.13 10.56 34.16-2.51 17.05-17.76 27.34-40.67 33.47-36.49 9.78-92.43 9.02-147.21 8.27-51.76-.71-105.28-1.44-146.51 6.46-50.43 9.67-76.34 31.3-79.17 66.13-2.24 27.47 6.6 49.6 26.28 65.81 38.73 31.9 119.51 39.24 240.11 21.83 75.43-10.89 143.75-28.5 162.5-33.52 3.18-.86 4.94-1.35 5.05-1.38 5.52-1.55 8.73-7.28 7.18-12.79-1.55-5.52-7.28-8.78-12.79-7.19-.77.22-78.18 21.84-165.12 34.37-112.85 16.28-190.21 10.28-223.75-17.34-14.31-11.79-20.45-27.53-18.78-48.11 4.58-56.26 106.33-54.87 204.72-53.52 49.76.68 96.76 1.32 134.22-5 16.85-2.84 68.13-11.49 74.46-54.46 2.85-19.3-2.44-36.5-15.71-51.13Zm-310.07-75.87-150.78-99.77 57.56-87 93.22 186.77Zm-11.45 17.3-208.35-12.78 57.56-86.99 150.79 99.77Zm-156.63-128.52-45.01-29.78 92.56-42.08-47.55 71.86Zm-56.46-12.48 45 29.78-47.54 71.86 2.54-101.64Z" fill="#c5e3fc"/></g><path d="m537.432 3038.56 4.941 96.32m33.718-134.24 12.406-3.32c15.002-4.02 30.426 4.88 34.446 19.88l18.392 68.65c2.801 10.45-3.403 21.19-13.855 23.99l-47.179 12.64c-10.406 2.69-21.034-3.51-23.816-13.9l-18.781-70.09m22.108-91.72c-15.002 4.02-23.907 19.44-19.888 34.45 4.02 15 19.444 23.9 34.446 19.88m42.527 5.5 60.393 83.39m-70.7 170.45-50.141-151.27m84.343-23.18 31.058 151.05m-56.573-75.3 23.051 86.03c.577 2.15 2.787 3.42 4.938 2.85l25.899-6.94c2.15-.58 3.426-2.79 2.85-4.94m-321.431-131.77-14.497 83.18m75.875-110.2c.953 1.04 1.782 2.18 2.468 3.41 1.288 2.19 2.277 4.53 2.937 6.98l4.896 54.5 16.02 23.56.582 2.17c1.427 9.9-4.76 19.31-14.413 21.92l-28.525 7.64c-9.767 2.62-19.93-2.58-23.512-12.04l-1.456-5.44 3.572-22.89-18.324-32.16-5.533-20.65m-5.146-61.22c3.786 14.12-10.487 26.78-10.487 26.78l17.205-4.61m10.025-50.24c-5.655 1.48-10.527 5.08-13.612 10.05l-.862 1.49a23.2581 23.2581 0 0 0-2.269 16.53" stroke="#c5e3fc" stroke-width="18.75" stroke-linecap="round" stroke-linejoin="round"/><path d="M390.806 3033.59c3.785 14.13 22.475 17.96 22.475 17.96l-11.954 3.2c-7.101 1.9-11.316 9.2-9.413 16.3 1.903 7.1 9.203 11.32 16.304 9.42l3.623-.97 48.91 76.77m-98.48-138.61c5.641-1.54 11.659-.86 16.815 1.9l1.492.86c4.923 2.97 8.566 7.67 10.228 13.17m-18.845 153.16 11.154 85.82m55.053-104.24 34.144 80.34m-89.197 23.9 63.117-16.91 12.642 47.18m-34.23 9.17-6.333-23.63m77.407-111.01-34.845-20.65m75.65 10.3 8.905 33.23c1.34 5-1.629 10.15-6.629 11.49l-22.548 6.04c-5 1.34-10.143-1.63-11.482-6.63l-9.051-33.78m33.318 106.96-24.194-72.91m40.586-11.17 15.575 75.52m-51.772-121.14c-7.501 2.01-15.214-2.44-17.223-9.94-2.01-7.5 2.442-15.22 9.943-17.23M5270.54 2038.54l-43.88 85.88m96.32-99.4 12.4 3.33c15.01 4.02 23.91 19.44 19.89 34.44l-18.39 68.64c-2.8 10.46-13.55 16.66-24 13.86l-47.18-12.64c-10.35-2.88-16.45-13.57-13.67-23.95l18.78-70.09m65.01-68.38c-15.01-4.02-30.43 4.88-34.45 19.89-4.02 15 4.89 30.42 19.89 34.44m34.08 26.02 10.6 102.42m-146.45 112.27 32.21-156.08m84.64 22.1-48.63 146.34m-11.34-93.5-23.05 86.03c-.58 2.15.69 4.36 2.85 4.94l25.89 6.94c2.16.57 4.37-.7 4.94-2.86m-212.48-274.82-54.15 64.78m120.81-57.5c.31 1.38.46 2.78.43 4.19.03 2.54-.29 5.06-.94 7.51l-23.01 49.65 2.09 28.41-.58 2.18c-3.71 9.28-13.77 14.33-23.44 11.77l-28.52-7.65c-9.77-2.61-15.97-12.2-14.34-22.18l1.45-5.44 14.54-18.03.22-37.02 5.53-20.65m26.15-55.59c-3.78 14.12-22.47 17.95-22.47 17.95l17.2 4.61m33.81-38.5c-5.64-1.54-11.66-.86-16.82 1.9l-1.49.86c-4.92 2.98-8.57 7.67-10.23 13.18" stroke="#c5e3fc" stroke-width="18.75" stroke-linecap="round" stroke-linejoin="round"/><path d="M5146.04 1960.92c-3.78 14.13 10.49 26.78 10.49 26.78l-11.95-3.2c-7.11-1.9-14.41 2.31-16.31 9.41-1.9 7.1 2.31 14.4 9.41 16.31l3.63.97 3.97 90.94m-15.98-169.28c5.65 1.48 10.52 5.08 13.61 10.05l.86 1.49c2.78 5.04 3.59 10.93 2.27 16.53m-92.9 123.22-33.25 79.89m99.8-62.74-10.6 86.64m-89.2-23.9 63.12 16.92-12.64 47.18m-34.23-9.18 6.33-23.63m122.54-57.43-19.85-35.31m60.36 46.75-8.9 33.23c-1.34 5-6.49 7.97-11.48 6.63l-22.55-6.04c-5-1.34-7.97-6.48-6.63-11.48l9.05-33.78m-24.63 109.29 15.51-75.24m40.73 10.62-24.27 73.18m15.73-130.79c-7.5-2.01-11.95-9.72-9.94-17.22 2.01-7.5 9.72-11.95 17.22-9.95" stroke="#c5e3fc" stroke-width="18.75" stroke-linecap="round" stroke-linejoin="round"/><g clip-path="url(#d)"><path d="m2110.78 1611.2 82.82-309.1m-5.18 19.32-31.05 115.91m31.05-115.91c22.87-85.35-27.78-173.08-113.13-195.96l-115.91-31.05-31.06 115.91c-22.87 85.35 27.78 173.09 113.13 195.96l115.92 31.05m31.05-115.91 115.91 31.06c85.36 22.87 173.09-27.78 195.96-113.14l31.06-115.91-115.91-31.05c-85.36-22.88-173.09 27.78-195.96 113.13l-31.06 115.91Zm0 0 195.96-113.13m-227.01 229.04-113.14-195.95" stroke="#c5e3fc" stroke-width="40"/></g><path d="M1888 4693v-320m0 20v120m0-120c0-88.37-71.63-160-160-160h-120v120c0 88.37 71.63 160 160 160h120m0-120h120c88.36 0 160-71.63 160-160v-120h-120c-88.37 0-160 71.63-160 160v120Zm0 0 160-160m-160 280-160-160" stroke="#c5e3fc" stroke-width="40"/><path d="M5411 4450c0 69.04-55.96 125-125 125-69.04 0-125-55.96-125-125 0-69.04 55.96-125 125-125 69.04 0 125 55.96 125 125Z" stroke="#c5e3fc" stroke-width="37.5"/><path d="M5286 4200v50m0 400v50m-200-250h-50m500 0h-50m-5.55-194.43-55.56 50.79m-333.34-50.79 55.56 50.79m0 282.53-55.56 55.56m388.9-.02-55.56-55.55" stroke="#c5e3fc" stroke-width="37.5" stroke-linecap="round"/><path d="M2246 2647c0 69.04-55.96 125-125 125-69.04 0-125-55.96-125-125 0-69.04 55.96-125 125-125 69.04 0 125 55.96 125 125Z" stroke="#c5e3fc" stroke-width="37.5"/><path d="M2121 2397v50m0 400v50m-200-250h-50m500 0h-50m-5.55-194.43-55.56 50.79m-333.34-50.79 55.56 50.79m0 282.53-55.56 55.56m388.9-.02-55.56-55.55" stroke="#c5e3fc" stroke-width="37.5" stroke-linecap="round"/><defs><clipPath id="a"><path fill="#fff" transform="rotate(-15 1840.6603 -2292.2618)" d="M0 0h600v600H0z"/></clipPath><clipPath id="b"><path fill="#fff" transform="rotate(15 1012.9307 17173.2927)" d="M0 0h600v600H0z"/></clipPath><clipPath id="c"><path fill="#fff" transform="rotate(-15 14859.5435 -9762.3161)" d="M0 0h600v600H0z"/></clipPath><clipPath id="d"><path fill="#fff" transform="rotate(15 -2635.0297 7982.7064)" d="M0 0h600v600H0z"/></clipPath></defs></svg>

<svg width="6065" height="5161" fill="none" xmlns="http://www.w3.org/2000/svg"><g clip-path="url(#a)" stroke="#0EA5E9" stroke-opacity=".17" stroke-width="37.5"><path d="M1074.62 571.526c13.04-8.881 27.79-15.761 43.92-20.082 15.81-4.237 31.7-5.68 47.15-4.633m0 0c58.99 3.997 111.39 44.333 127.38 104.024 20.18 75.312-25.24 152.919-101.45 173.34l-241.48 64.704c-57.159 15.315-115.763-18.06-130.898-74.544-15.135-56.484 18.93-114.691 76.089-130.006 6.86-1.838 13.742-2.975 20.566-3.452m249.793-134.066c-25.94-66.07-98.6-103.379-169.589-84.358-76.21 20.42-121.632 98.028-101.452 173.34 4.463 16.658 11.762 31.809 21.248 45.084m0 0c14.341-1.008 28.427.883 41.545 5.27" stroke-linecap="round"/><path d="M878.302 455.194c-46.677 12.508-74.379 60.488-61.872 107.165 9.035 33.717 36.575 57.534 68.764 63.443m-6.892-170.608c17.957-4.811 36.108-3.673 52.356 2.209m-52.356-2.209c-17.956 4.812-33.107 14.873-44.237 28.09m44.237-28.09c23.028-6.17 46.376-2.555 65.622 8.299m-65.622-8.299c-23.027 6.17-41.44 20.976-52.681 39.998m52.681-39.998c30.744-8.237 62.057.968 83.42 21.55"/><path d="m850.052 398.059 3.235 12.074M764.899 563.226l-12.074 3.236M954.385 411.81l-3.821 6.612M820.714 643.334l-3.821 6.613M773.183 465.947l-6.616-3.82" stroke-linecap="round"/></g><path d="M3725.52 1787.68c14.9-5.2 30.93-8.03 47.62-8.03 16.37 0 32.09 2.72 46.74 7.73m0 0c55.94 19.13 96.12 71.65 96.12 133.44 0 77.97-63.96 141.18-142.86 141.18h-250c-59.17 0-107.14-47.41-107.14-105.88 0-58.48 47.97-105.89 107.14-105.89 7.11 0 14.05.69 20.76 1.99m275.98-64.84c-7.95-70.54-68.48-125.38-141.97-125.38-78.9 0-142.86 63.21-142.86 141.18 0 17.24 3.13 33.77 8.85 49.04m0 0c14.12 2.74 27.23 8.21 38.77 15.85" stroke="#0EA5E9" stroke-opacity=".17" stroke-width="37.5" stroke-linecap="round"/><g clip-path="url(#b)"><path d="M4918.19 842.403c-8.08-37.36-47.52-80.939-117.22-129.523-40.46-28.201-79.93-50.072-94.61-57.957l15.69-258.282c.34-5.572-3.8-10.408-9.35-10.954l-155.78-15.144c-3.96-.381-7.79 1.525-9.86 4.918l-81.63 133.543c-2.91 4.764-1.53 10.978 3.12 14.057l221.32 146.552c.16.103 49.71 25.742 99.42 60.415 64.23 44.8 101.79 85.178 108.62 116.765 2.84 13.13.24 24.535-7.94 34.863-10.7 13.511-29.04 14.795-51.95 8.657-36.5-9.783-84.56-38.409-131.62-66.448-44.48-26.491-90.46-53.884-130.11-67.656-48.51-16.847-81.76-11.07-101.64 17.677-15.66 22.671-19.08 46.263-10.14 70.131 17.59 46.995 83.88 93.748 197.02 138.963 70.78 28.28 138.75 47.19 157.5 52.22 3.18.85 4.95 1.3 5.06 1.33 5.55 1.42 11.2-1.94 12.62-7.49 1.41-5.55-1.92-11.24-7.49-12.61-.77-.2-78.62-20.184-160.19-52.796-105.86-42.33-169.86-86.207-185.09-126.895-6.51-17.369-3.96-34.067 7.78-51.053 32.1-46.431 119.52 5.645 204.06 56.007 42.75 25.469 83.13 49.525 118.74 62.782 16.01 5.965 64.74 24.114 91.71-9.933 12.12-15.289 16.14-32.83 11.96-52.139Zm-230.6-220.736-80.69-161.8 93.35-46.554-12.66 208.354Zm-18.57 9.256-174.04-115.241 93.35-46.556 80.69 161.797Zm-71.38-189.624-24.08-48.289 101.19 9.835-77.11 38.454Zm-42.65-39.029 24.09 48.289-77.11 38.455 53.02-86.744Z" fill="#0EA5E9" fill-opacity=".17"/></g><g clip-path="url(#c)"><path d="M3672.8 3743.66c-25.68-28.32-81.62-46.34-166.28-53.56-49.14-4.19-94.25-3.4-110.91-2.89l-115.55-231.52c-2.5-5-8.5-7.12-13.58-4.81L3124 3515.65c-3.62 1.65-5.98 5.22-6.08 9.19l-3.92 156.47c-.14 5.58 4.16 10.27 9.73 10.61l264.94 16.26c.19.01 55.92-2.56 116.31 2.61 78.03 6.68 130.75 22.87 152.45 46.81 9.02 9.95 12.48 21.13 10.56 34.16-2.51 17.05-17.76 27.34-40.67 33.47-36.49 9.78-92.43 9.02-147.21 8.27-51.76-.71-105.28-1.44-146.51 6.46-50.43 9.67-76.34 31.3-79.17 66.13-2.24 27.47 6.6 49.6 26.28 65.81 38.73 31.9 119.51 39.24 240.11 21.83 75.43-10.89 143.75-28.5 162.5-33.52 3.18-.86 4.94-1.35 5.05-1.38 5.52-1.55 8.73-7.28 7.18-12.79-1.55-5.52-7.28-8.78-12.79-7.19-.77.22-78.18 21.84-165.12 34.37-112.85 16.28-190.21 10.28-223.75-17.34-14.31-11.79-20.45-27.53-18.78-48.11 4.58-56.26 106.33-54.87 204.72-53.52 49.76.68 96.76 1.32 134.22-5 16.85-2.84 68.13-11.49 74.46-54.46 2.85-19.3-2.44-36.5-15.71-51.13Zm-310.07-75.87-150.78-99.77 57.56-87 93.22 186.77Zm-11.45 17.3-208.35-12.78 57.56-86.99 150.79 99.77Zm-156.63-128.52-45.01-29.78 92.56-42.08-47.55 71.86Zm-56.46-12.48 45 29.78-47.54 71.86 2.54-101.64Z" fill="#0EA5E9" fill-opacity=".17"/></g><path d="m537.432 3038.56 4.941 96.32M576.091 3000.64l12.406-3.32c15.002-4.02 30.426 4.88 34.446 19.88l18.392 68.65c2.801 10.45-3.403 21.19-13.855 23.99l-47.179 12.64c-10.406 2.69-21.034-3.51-23.816-13.9l-18.781-70.09M559.812 2946.77c-15.002 4.02-23.907 19.44-19.888 34.45 4.02 15 19.444 23.9 34.446 19.88M616.897 3006.6l60.393 83.39M606.59 3260.44l-50.141-151.27M640.792 3085.99l31.058 151.05M615.277 3161.74l23.051 86.03c.577 2.15 2.787 3.42 4.938 2.85l25.899-6.94c2.15-.58 3.426-2.79 2.85-4.94M350.584 3106.97l-14.497 83.18M411.962 3079.95c.953 1.04 1.782 2.18 2.468 3.41 1.288 2.19 2.277 4.53 2.937 6.98l4.896 54.5 16.02 23.56.582 2.17c1.427 9.9-4.76 19.31-14.413 21.92l-28.525 7.64c-9.767 2.62-19.93-2.58-23.512-12.04l-1.456-5.44 3.572-22.89-18.324-32.16-5.533-20.65M345.528 3045.73c3.786 14.12-10.487 26.78-10.487 26.78l17.205-4.61M362.271 3017.66c-5.655 1.48-10.527 5.08-13.612 10.05l-.862 1.49a23.2581 23.2581 0 0 0-2.269 16.53" stroke="#0EA5E9" stroke-opacity=".17" stroke-width="18.75" stroke-linecap="round" stroke-linejoin="round"/><path d="M390.806 3033.59c3.785 14.13 22.475 17.96 22.475 17.96l-11.954 3.2c-7.101 1.9-11.316 9.2-9.413 16.3 1.903 7.1 9.203 11.32 16.304 9.42l3.623-.97 48.91 76.77M362.271 3017.66c5.641-1.54 11.659-.86 16.815 1.9l1.492.86c4.923 2.97 8.566 7.67 10.228 13.17M371.961 3186.75l11.154 85.82M438.168 3168.33l34.144 80.34M383.115 3272.57l63.117-16.91 12.642 47.18M424.644 3312.01l-6.333-23.63M495.718 3177.37l-34.845-20.65M536.523 3167.02l8.905 33.23c1.34 5-1.629 10.15-6.629 11.49l-22.548 6.04c-5 1.34-10.143-1.63-11.482-6.63l-9.051-33.78M529.036 3284.33l-24.194-72.91M545.428 3200.25l15.575 75.52M509.231 3154.63c-7.501 2.01-15.214-2.44-17.223-9.94-2.01-7.5 2.442-15.22 9.943-17.23M5270.54 2038.54l-43.88 85.88M5322.98 2025.02l12.4 3.33c15.01 4.02 23.91 19.44 19.89 34.44l-18.39 68.64c-2.8 10.46-13.55 16.66-24 13.86l-47.18-12.64c-10.35-2.88-16.45-13.57-13.67-23.95l18.78-70.09M5335.82 1970.23c-15.01-4.02-30.43 4.88-34.45 19.89-4.02 15 4.89 30.42 19.89 34.44M5355.34 2050.58l10.6 102.42M5219.49 2265.27l32.21-156.08M5336.34 2131.29l-48.63 146.34M5276.37 2184.13l-23.05 86.03c-.58 2.15.69 4.36 2.85 4.94l25.89 6.94c2.16.57 4.37-.7 4.94-2.86M5074.52 2004.36l-54.15 64.78M5141.18 2011.64c.31 1.38.46 2.78.43 4.19.03 2.54-.29 5.06-.94 7.51l-23.01 49.65 2.09 28.41-.58 2.18c-3.71 9.28-13.77 14.33-23.44 11.77l-28.52-7.65c-9.77-2.61-15.97-12.2-14.34-22.18l1.45-5.44 14.54-18.03.22-37.02 5.53-20.65M5100.76 1948.79c-3.78 14.12-22.47 17.95-22.47 17.95l17.2 4.61M5129.3 1932.85c-5.64-1.54-11.66-.86-16.82 1.9l-1.49.86c-4.92 2.98-8.57 7.67-10.23 13.18" stroke="#0EA5E9" stroke-opacity=".17" stroke-width="18.75" stroke-linecap="round" stroke-linejoin="round"/><path d="M5146.04 1960.92c-3.78 14.13 10.49 26.78 10.49 26.78l-11.95-3.2c-7.11-1.9-14.41 2.31-16.31 9.41-1.9 7.1 2.31 14.4 9.41 16.31l3.63.97 3.97 90.94M5129.3 1932.85c5.65 1.48 10.52 5.08 13.61 10.05l.86 1.49c2.78 5.04 3.59 10.93 2.27 16.53M5053.14 2084.14l-33.25 79.89M5119.69 2101.29l-10.6 86.64M5019.89 2164.03l63.12 16.92-12.64 47.18M5036.14 2218.95l6.33-23.63M5165.01 2137.89l-19.85-35.31M5205.52 2149.33l-8.9 33.23c-1.34 5-6.49 7.97-11.48 6.63l-22.55-6.04c-5-1.34-7.97-6.48-6.63-11.48l9.05-33.78M5140.38 2247.18l15.51-75.24M5196.62 2182.56l-24.27 73.18M5188.08 2124.95c-7.5-2.01-11.95-9.72-9.94-17.22 2.01-7.5 9.72-11.95 17.22-9.95" stroke="#0EA5E9" stroke-opacity=".17" stroke-width="18.75" stroke-linecap="round" stroke-linejoin="round"/><g clip-path="url(#d)"><path d="m2110.78 1611.2 82.82-309.1m-5.18 19.32-31.05 115.91m31.05-115.91c22.87-85.35-27.78-173.08-113.13-195.96l-115.91-31.05-31.06 115.91c-22.87 85.35 27.78 173.09 113.13 195.96l115.92 31.05m31.05-115.91 115.91 31.06c85.36 22.87 173.09-27.78 195.96-113.14l31.06-115.91-115.91-31.05c-85.36-22.88-173.09 27.78-195.96 113.13l-31.06 115.91Zm0 0 195.96-113.13m-227.01 229.04-113.14-195.95" stroke="#0EA5E9" stroke-opacity=".17" stroke-width="40"/></g><path d="M1888 4693v-320m0 20v120m0-120c0-88.37-71.63-160-160-160h-120v120c0 88.37 71.63 160 160 160h120m0-120h120c88.36 0 160-71.63 160-160v-120h-120c-88.37 0-160 71.63-160 160v120Zm0 0 160-160m-160 280-160-160" stroke="#0EA5E9" stroke-opacity=".17" stroke-width="40"/><path d="M5411 4450c0 69.04-55.96 125-125 125-69.04 0-125-55.96-125-125 0-69.04 55.96-125 125-125 69.04 0 125 55.96 125 125Z" stroke="#0EA5E9" stroke-opacity=".17" stroke-width="37.5"/><path d="M5286 4200v50M5286 4650v50M5086 4450h-50M5536 4450h-50M5480.45 4255.57l-55.56 50.79M5091.55 4255.57l55.56 50.79M5147.11 4588.89l-55.56 55.56M5480.45 4644.43l-55.56-55.55" stroke="#0EA5E9" stroke-opacity=".17" stroke-width="37.5" stroke-linecap="round"/><path d="M2246 2647c0 69.04-55.96 125-125 125-69.04 0-125-55.96-125-125 0-69.04 55.96-125 125-125 69.04 0 125 55.96 125 125Z" stroke="#0EA5E9" stroke-opacity=".17" stroke-width="37.5"/><path d="M2121 2397v50M2121 2847v50M1921 2647h-50M2371 2647h-50M2315.45 2452.57l-55.56 50.79M1926.55 2452.57l55.56 50.79M1982.11 2785.89l-55.56 55.56M2315.45 2841.43l-55.56-55.55" stroke="#0EA5E9" stroke-opacity=".17" stroke-width="37.5" stroke-linecap="round"/><defs><clipPath id="a"><path fill="#fff" transform="rotate(-15 1840.6603 -2292.2618)" d="M0 0h600v600H0z"/></clipPath><clipPath id="b"><path fill="#fff" transform="rotate(15 1012.9307 17173.2927)" d="M0 0h600v600H0z"/></clipPath><clipPath id="c"><path fill="#fff" transform="rotate(-15 14859.5435 -9762.3161)" d="M0 0h600v600H0z"/></clipPath><clipPath id="d"><path fill="#fff" transform="rotate(15 -2635.0297 7982.7064)" d="M0 0h600v600H0z"/></clipPath></defs></svg>
